; generated by PrusaSlicer 2.2.0+ on 2020-07-15 at 14:35:02 UTC

; 

; external perimeters extrusion width = 0.45mm
; perimeters extrusion width = 0.45mm
; infill extrusion width = 0.45mm
; solid infill extrusion width = 0.45mm
; top infill extrusion width = 0.40mm
; first layer extrusion width = 0.42mm

M73 P0 R81
M73 Q0 S82
M201 X1000 Y1000 Z200 E5000 ; sets maximum accelerations, mm/sec^2
M203 X200 Y200 Z12 E120 ; sets maximum feedrates, mm/sec
M204 P1250 R1250 T1250 ; sets acceleration (P, T) and retract acceleration (R), mm/sec^2
M205 X8.00 Y8.00 Z0.40 E4.50 ; sets the jerk limits, mm/sec
M205 S0 T0 ; sets the minimum extruding and travel feed rate, mm/sec
M107
M862.3 P "MK3S" ; printer model check
M862.1 P0.4 ; nozzle diameter check
M115 U3.9.0 ; tell printer latest fw version
G90 ; use absolute coordinates
M83 ; extruder relative mode
M104 S230 ; set extruder temp
M140 S100 ; set bed temp
M190 S100 ; wait for bed temp
M109 S230 ; wait for extruder temp
G28 W ; home all without mesh bed level
G80 ; mesh bed leveling
G1 Y-3.0 F1000.0 ; go outside print area
G92 E0.0
G1 X60.0 E9.0 F1000.0 ; intro line
M73 Q0 S82
M73 P0 R81
G1 X100.0 E12.5 F1000.0 ; intro line
G92 E0.0
M221 S95
G21 ; set units to millimeters
G90 ; use absolute coordinates
M83 ; use relative distances for extrusion
M900 K0.04 ; Filament gcode LA 1.5
M900 K20 ; Filament gcode LA 1.0
;BEFORE_LAYER_CHANGE
G92 E0.0
;0.2


G1 E-0.80000 F2100.00000
G1 Z0.600 F10800.000
;AFTER_LAYER_CHANGE
;0.2
G1 X107.698 Y91.670
G1 Z0.200
G1 E0.80000 F2100.00000
M204 S1000
G1 F1200.000
G1 X108.102 Y90.791 E0.03034
G1 X108.493 Y90.284 E0.02007
G1 X108.980 Y89.848 E0.02049
G1 X109.558 Y89.498 E0.02121
G1 X110.170 Y89.270 E0.02045
G1 X119.503 Y87.681 E0.29685
G1 X130.004 Y87.646 E0.32926
G1 X139.958 Y89.307 E0.31643
G1 X140.689 Y89.629 E0.02503
G1 X141.332 Y90.108 E0.02516
G1 X141.866 Y90.742 E0.02599
G1 X142.229 Y91.454 E0.02505
G1 X142.397 Y92.063 E0.01978
G1 X142.454 Y92.675 E0.01929
G1 X142.454 Y117.333 E0.77312
G1 X142.304 Y118.322 E0.03138
G1 X141.897 Y119.210 E0.03061
G1 X141.495 Y119.728 E0.02058
G1 X140.984 Y120.179 E0.02136
G1 X140.419 Y120.513 E0.02057
G1 X139.815 Y120.734 E0.02019
G1 X130.090 Y122.353 E0.30910
G1 X119.626 Y122.334 E0.32811
G1 X110.435 Y120.791 E0.29220
G1 X109.777 Y120.599 E0.02151
G1 X109.189 Y120.297 E0.02071
G1 X108.518 Y119.742 E0.02729
G1 X108.018 Y119.069 E0.02630
G1 X107.680 Y118.266 E0.02732
G1 X107.548 Y117.435 E0.02639
G1 X107.546 Y92.643 E0.77734
G1 X107.689 Y91.729 E0.02899
G1 X108.059 Y91.787 F10800.000
G1 F1200.000
G1 X108.429 Y90.980 E0.02782
G1 X108.786 Y90.523 E0.01820
G1 X109.245 Y90.121 E0.01913
G1 X109.748 Y89.825 E0.01831
G1 X110.290 Y89.628 E0.01808
G1 X119.572 Y88.052 E0.29520
G1 X130.004 Y88.023 E0.32708
G1 X139.824 Y89.660 E0.31216
G1 X140.490 Y89.949 E0.02276
G1 X141.070 Y90.379 E0.02264
G1 X141.555 Y90.955 E0.02360
G1 X141.879 Y91.596 E0.02254
G1 X142.077 Y92.681 E0.03457
G1 X142.077 Y117.327 E0.77275
G1 X141.941 Y118.220 E0.02832
G1 X141.571 Y119.020 E0.02765
G1 X141.214 Y119.477 E0.01820
G1 X140.752 Y119.881 E0.01923
G1 X140.248 Y120.177 E0.01831
G1 X139.699 Y120.375 E0.01832
G1 X130.072 Y121.976 E0.30599
G1 X119.668 Y121.959 E0.32620
G1 X110.510 Y120.422 E0.29116
G1 X109.915 Y120.248 E0.01945
G1 X109.382 Y119.973 E0.01879
G1 X108.786 Y119.476 E0.02433
G1 X108.341 Y118.875 E0.02346
G1 X108.041 Y118.158 E0.02436
G1 X107.925 Y117.412 E0.02366
G1 X107.923 Y92.654 E0.77626
G1 X108.050 Y91.846 E0.02564
G1 F8640.000
G1 X108.429 Y90.980 E-0.21827
G1 X108.786 Y90.523 E-0.13402
G1 X109.245 Y90.121 E-0.14086
G1 X109.748 Y89.825 E-0.13487
G1 X110.286 Y89.630 E-0.13199
G1 E-0.04000 F2100.00000
G1 Z0.800 F10800.000
G1 X119.987 Y91.263
G1 Z0.200
G1 E0.80000 F2100.00000
G1 F1200.000
G1 X120.004 Y91.192 E0.00229
G1 X120.044 Y91.187 E0.00127
G1 X120.813 Y91.187 E0.02410
G1 X120.813 Y92.513 E0.04157
G1 X119.987 Y92.513 E0.02589
G1 X119.987 Y91.323 E0.03730
G1 F8640.000
G1 X120.004 Y91.192 E-0.03051
G1 X120.044 Y91.187 E-0.00937
G1 X120.813 Y91.187 E-0.17749
G1 X120.813 Y92.513 E-0.30614
G1 X119.987 Y92.513 E-0.19069
G1 X119.987 Y92.315 E-0.04580
G1 E-0.04000 F2100.00000
G1 Z0.800 F10800.000
G1 X129.187 Y91.323
G1 Z0.200
G1 E0.80000 F2100.00000
G1 F1200.000
G1 X129.187 Y91.187 E0.00427
G1 X130.000 Y91.199 E0.02550
G1 X130.013 Y92.513 E0.04120
G1 X129.187 Y92.513 E0.02589
G1 X129.187 Y91.383 E0.03542
G1 F8640.000
G1 X129.187 Y91.187 E-0.04531
G1 X130.000 Y91.199 E-0.18781
G1 X130.013 Y92.513 E-0.30339
G1 X129.187 Y92.513 E-0.19069
G1 X129.187 Y92.371 E-0.03279
G1 E-0.04000 F2100.00000
G1 Z0.800 F10800.000
G1 X111.290 Y92.890
G1 Z0.200
G1 E0.80000 F2100.00000
G1 F1200.000
G1 X138.710 Y92.890 E0.85973
G1 X138.710 Y117.110 E0.75940
G1 X111.290 Y117.110 E0.85973
G1 X111.290 Y92.950 E0.75752
G1 X111.179 Y92.506 F10800.000
G1 F8640.000
G1 X114.581 Y92.943 E-0.76000
G1 E-0.04000 F2100.00000
G1 Z0.800 F10800.000
G1 X119.987 Y117.487
G1 Z0.200
G1 E0.80000 F2100.00000
G1 F1200.000
G1 X120.813 Y117.487 E0.02589
G1 X120.813 Y118.813 E0.04157
G1 X120.000 Y118.801 E0.02550
G1 X119.987 Y117.547 E0.03933
G1 F8640.000
G1 X120.813 Y117.487 E-0.19119
G1 X120.813 Y118.813 E-0.30614
G1 X120.000 Y118.801 E-0.18780
G1 X119.996 Y118.477 E-0.07487
G1 E-0.04000 F2100.00000
G1 Z0.800 F10800.000
G1 X129.187 Y117.547
G1 Z0.200
G1 E0.80000 F2100.00000
G1 F1200.000
G1 X129.187 Y117.487 E0.00188
G1 X130.013 Y117.487 E0.02589
G1 X130.013 Y118.737 E0.03918
G1 X129.992 Y118.808 E0.00234
G1 X129.187 Y118.813 E0.02524
G1 X129.187 Y117.607 E0.03781
G1 X128.810 Y117.690 F10800.000
G1 F1200.000
G1 X121.190 Y117.690 E0.23892
G1 X121.190 Y119.190 E0.04703
G1 X120.020 Y119.190 E0.03668
G1 X119.899 Y119.174 E0.00381
G1 X119.806 Y119.136 E0.00317
G1 X119.731 Y119.078 E0.00295
G1 X119.644 Y118.948 E0.00493
G1 X119.610 Y118.773 E0.00558
G1 X119.610 Y117.690 E0.03396
G1 X111.090 Y117.689 E0.26714
G1 X110.921 Y117.645 E0.00549
G1 X110.784 Y117.524 E0.00571
G1 X110.731 Y117.417 E0.00376
G1 X110.710 Y117.282 E0.00427
G1 X110.710 Y92.723 E0.77004
G1 X110.745 Y92.548 E0.00559
G1 X110.804 Y92.449 E0.00362
G1 X110.876 Y92.384 E0.00303
G1 X110.986 Y92.329 E0.00384
G1 X111.092 Y92.311 E0.00339
G1 X119.610 Y92.310 E0.26707
G1 X119.610 Y91.227 E0.03396
G1 X119.644 Y91.052 E0.00558
G1 X119.731 Y90.922 E0.00493
G1 X119.806 Y90.864 E0.00295
G1 X119.899 Y90.826 E0.00317
G1 X120.020 Y90.810 E0.00381
G1 X121.190 Y90.810 E0.03668
G1 X121.190 Y92.310 E0.04703
G1 X128.810 Y92.310 E0.23892
G1 X128.810 Y90.810 E0.04703
G1 X129.980 Y90.810 E0.03668
G1 X130.101 Y90.826 E0.00381
G1 X130.187 Y90.862 E0.00294
G1 X130.311 Y90.970 E0.00516
G1 X130.355 Y91.045 E0.00272
G1 X130.390 Y91.227 E0.00580
G1 X130.390 Y92.310 E0.03396
G1 X138.910 Y92.311 E0.26714
G1 X139.079 Y92.355 E0.00549
G1 X139.216 Y92.476 E0.00571
G1 X139.269 Y92.583 E0.00376
G1 X139.290 Y92.718 E0.00427
G1 X139.290 Y117.287 E0.77033
G1 X139.244 Y117.481 E0.00628
G1 X139.124 Y117.616 E0.00565
G1 X139.017 Y117.669 E0.00376
G1 X138.882 Y117.690 E0.00427
G1 X130.390 Y117.690 E0.26626
G1 X130.390 Y118.773 E0.03396
G1 X130.355 Y118.955 E0.00580
G1 X130.311 Y119.030 E0.00272
G1 X130.187 Y119.138 E0.00516
G1 X130.101 Y119.174 E0.00294
G1 X129.980 Y119.190 E0.00381
G1 X128.810 Y119.190 E0.03668
G1 X128.810 Y117.750 E0.04515
G1 X128.722 Y117.300 F10800.000
G1 X128.999 Y117.400
G1 F1200.000
G1 X121.001 Y117.400 E0.13493
G1 F8640.000
G1 X124.293 Y117.400 E-0.76000
G1 E-0.04000 F2100.00000
G1 Z0.800 F10800.000
G1 X120.700 Y118.439
G1 Z0.200
G1 E0.80000 F2100.00000
G1 F1200.000
G1 X120.104 Y117.843 E0.02896
G1 X119.799 Y117.400 F10800.000
G1 F1200.000
G1 X111.112 Y117.400 E0.14658
G1 X111.024 Y117.360 E0.00163
G1 X111.000 Y117.260 E0.00174
G1 X111.000 Y92.751 E0.41359
G1 X111.016 Y92.653 E0.00168
G1 X111.040 Y92.624 E0.00064
G1 X111.118 Y92.600 E0.00137
G1 X119.799 Y92.600 E0.14649
G1 F8640.000
G1 X116.507 Y92.600 E-0.76000
G1 E-0.04000 F2100.00000
G1 Z0.800 F10800.000
G1 X120.100 Y91.551
G1 Z0.200
G1 E0.80000 F2100.00000
G1 F1200.000
G1 X120.700 Y92.150 E0.02949
G1 X121.001 Y92.600 F10800.000
G1 F1200.000
G1 X128.999 Y92.600 E0.13493
G1 F8640.000
G1 X125.707 Y92.600 E-0.76000
G1 E-0.04000 F2100.00000
G1 Z0.800 F10800.000
G1 X129.300 Y91.552
G1 Z0.200
G1 E0.80000 F2100.00000
G1 F1200.000
G1 X129.900 Y92.152 E0.02942
G1 X130.201 Y92.600 F10800.000
G1 F1200.000
G1 X138.888 Y92.600 E0.14658
G1 X138.976 Y92.640 E0.00163
G1 X139.000 Y92.740 E0.00174
G1 X138.997 Y117.316 E0.41472
G1 X138.960 Y117.376 E0.00119
G1 X138.860 Y117.400 E0.00174
G1 X130.201 Y117.400 E0.14611
G1 F8640.000
G1 X133.493 Y117.400 E-0.76000
G1 E-0.04000 F2100.00000
G1 Z0.800 F10800.000
G1 X129.300 Y117.850
G1 Z0.200
G1 E0.80000 F2100.00000
G1 F1200.000
G1 X129.900 Y118.450 E0.02950
;BEFORE_LAYER_CHANGE
G92 E0.0
;0.3


G1 F8640.000
G1 X129.300 Y117.850 E-0.19581
G1 E-0.60419 F2100.00000
G1 Z0.800 F10800.000
;AFTER_LAYER_CHANGE
;0.3
M140 S110 ; set bed temperature
G1 X142.304 Y118.322
G1 Z0.300
G1 E0.80000 F2100.00000
G1 F3000.000
G1 X141.897 Y119.210 E0.01618
G1 X141.495 Y119.728 E0.01088
G1 X140.984 Y120.179 E0.01129
G1 X140.419 Y120.513 E0.01087
G1 X139.815 Y120.734 E0.01067
G1 X130.090 Y122.353 E0.16334
G1 X119.626 Y122.334 E0.17339
G1 X110.435 Y120.791 E0.15441
G1 X109.777 Y120.599 E0.01137
G1 X109.189 Y120.297 E0.01094
G1 X108.518 Y119.742 E0.01442
G1 X108.018 Y119.069 E0.01390
G1 X107.680 Y118.266 E0.01444
G1 X107.548 Y117.435 E0.01394
G1 X107.546 Y92.643 E0.41079
G1 X107.698 Y91.670 E0.01631
G1 X108.102 Y90.791 E0.01603
G1 X108.493 Y90.284 E0.01061
G1 X108.980 Y89.848 E0.01083
G1 X109.558 Y89.498 E0.01121
G1 X110.170 Y89.270 E0.01081
G1 X119.503 Y87.681 E0.15687
G1 X130.004 Y87.646 E0.17400
G1 X139.958 Y89.307 E0.16722
G1 X140.689 Y89.629 E0.01323
G1 X141.332 Y90.108 E0.01329
G1 X141.866 Y90.742 E0.01373
G1 X142.229 Y91.454 E0.01324
G1 X142.397 Y92.063 E0.01045
G1 X142.454 Y92.675 E0.01019
G1 X142.454 Y117.333 E0.40856
G1 X142.313 Y118.263 E0.01559
G1 X141.943 Y118.207 F10800.000
G1 F3000.000
G1 X141.571 Y119.020 E0.01482
G1 X141.214 Y119.477 E0.00962
G1 X140.752 Y119.881 E0.01016
G1 X140.248 Y120.177 E0.00968
G1 X139.699 Y120.375 E0.00968
G1 X130.072 Y121.976 E0.16170
G1 X119.668 Y121.959 E0.17238
G1 X110.510 Y120.422 E0.15387
G1 X109.915 Y120.248 E0.01028
G1 X109.382 Y119.973 E0.00993
G1 X108.786 Y119.476 E0.01286
G1 X108.341 Y118.875 E0.01240
G1 X108.041 Y118.158 E0.01287
G1 X107.925 Y117.412 E0.01251
G1 X107.923 Y92.654 E0.41022
G1 X108.061 Y91.773 E0.01478
G1 X108.429 Y90.980 E0.01448
G1 X108.786 Y90.523 E0.00962
G1 X109.245 Y90.121 E0.01011
G1 X109.748 Y89.825 E0.00968
G1 X110.290 Y89.628 E0.00955
G1 X119.572 Y88.052 E0.15600
G1 X130.004 Y88.023 E0.17285
G1 X139.824 Y89.660 E0.16496
G1 X140.490 Y89.949 E0.01203
G1 X141.070 Y90.379 E0.01196
G1 X141.555 Y90.955 E0.01247
G1 X141.879 Y91.596 E0.01191
G1 X142.077 Y92.681 E0.01827
G1 X142.077 Y117.327 E0.40836
G1 X141.952 Y118.147 E0.01375
G1 F8640.000
G1 X141.571 Y119.020 E-0.21992
G1 X141.214 Y119.477 E-0.13402
G1 X140.752 Y119.881 E-0.14160
G1 X140.248 Y120.177 E-0.13487
G1 X139.720 Y120.367 E-0.12959
G1 E-0.04000 F2100.00000
G1 Z0.900 F10800.000
G1 X138.954 Y117.354
G1 Z0.300
G1 E0.80000 F2100.00000
M204 S800
G1 F2700.000
G1 X111.046 Y117.354 E0.49721
G1 X111.046 Y92.646 E0.44020
G1 X138.954 Y92.646 E0.49721
G1 X138.954 Y117.294 E0.43913
M204 S1000
G1 X138.525 Y116.925 F10800.000
M204 S800
G1 F1500.000
G1 X111.475 Y116.925 E0.48194
G1 X111.475 Y111.775 E0.09176
G1 X111.584 Y111.775 E0.00195
G1 X111.584 Y111.425 E0.00624
G1 X111.475 Y111.425 E0.00195
G1 X111.475 Y93.075 E0.32693
G1 X138.525 Y93.075 E0.48194
G1 X138.525 Y111.425 E0.32693
G1 X138.416 Y111.425 E0.00195
G1 X138.416 Y111.775 E0.00624
G1 X138.525 Y111.775 E0.00195
G1 X138.525 Y116.865 E0.09069
M204 S1000
G1 X138.528 Y117.325 F10800.000
G1 F8640.000
G1 X135.234 Y116.872 E-0.76000
G1 E-0.04000 F2100.00000
G1 Z0.900 F10800.000
G1 X120.946 Y92.554
G1 Z0.300
G1 E0.80000 F2100.00000
M204 S800
G1 F2700.000
G1 X129.054 Y92.554 E0.14444
G1 X129.054 Y91.054 E0.02672
G1 X129.957 Y91.054 E0.01610
G1 X130.070 Y91.078 E0.00206
G1 X130.140 Y91.173 E0.00209
G1 X130.152 Y92.553 E0.02460
G1 X138.885 Y92.554 E0.15559
G1 X139.007 Y92.607 E0.00238
G1 X139.046 Y92.750 E0.00264
G1 X139.046 Y117.264 E0.43676
G1 X139.022 Y117.372 E0.00196
G1 X138.986 Y117.410 E0.00094
G1 X138.850 Y117.446 E0.00251
G1 X130.152 Y117.446 E0.15497
G1 X130.140 Y118.816 E0.02440
G1 X130.128 Y118.863 E0.00087
G1 X130.070 Y118.922 E0.00146
G1 X129.957 Y118.946 E0.00206
G1 X129.054 Y118.946 E0.01610
G1 X129.054 Y117.446 E0.02672
G1 X120.946 Y117.446 E0.14444
G1 X120.946 Y118.946 E0.02672
G1 X120.043 Y118.946 E0.01610
G1 X119.930 Y118.922 E0.00206
G1 X119.860 Y118.827 E0.00209
G1 X119.848 Y117.447 E0.02460
G1 X111.115 Y117.446 E0.15559
G1 X110.993 Y117.393 E0.00238
G1 X110.954 Y117.250 E0.00264
G1 X110.961 Y92.664 E0.43804
G1 X111.014 Y92.590 E0.00163
G1 X111.122 Y92.554 E0.00203
G1 X119.848 Y92.553 E0.15546
G1 X119.860 Y91.184 E0.02439
G1 X119.872 Y91.137 E0.00087
G1 X119.930 Y91.078 E0.00146
G1 X120.043 Y91.054 E0.00206
G1 X120.946 Y91.054 E0.01610
G1 X120.946 Y92.494 E0.02566
M204 S1000
G1 X121.375 Y92.125 F10800.000
M204 S800
G1 F1500.000
G1 X128.625 Y92.125 E0.12917
G1 X128.625 Y90.625 E0.02672
G1 X129.985 Y90.625 E0.02424
G1 X130.148 Y90.646 E0.00293
G1 X130.287 Y90.704 E0.00267
G1 X130.405 Y90.795 E0.00267
G1 X130.497 Y90.914 E0.00267
G1 X130.554 Y91.051 E0.00264
G1 X130.568 Y91.120 E0.00126
G1 X130.577 Y92.125 E0.01791
G1 X138.918 Y92.126 E0.14860
G1 X139.046 Y92.146 E0.00231
G1 X139.189 Y92.205 E0.00275
G1 X139.288 Y92.277 E0.00218
G1 X139.367 Y92.367 E0.00214
G1 X139.446 Y92.528 E0.00319
G1 X139.475 Y92.717 E0.00341
G1 X139.475 Y117.288 E0.43776
G1 X139.460 Y117.422 E0.00240
G1 X139.407 Y117.567 E0.00275
G1 X139.341 Y117.667 E0.00214
G1 X139.231 Y117.768 E0.00266
G1 X139.072 Y117.846 E0.00315
G1 X138.883 Y117.875 E0.00341
G1 X130.577 Y117.875 E0.14798
G1 X130.568 Y118.874 E0.01780
G1 X130.528 Y119.027 E0.00282
G1 X130.405 Y119.205 E0.00386
G1 X130.287 Y119.296 E0.00267
G1 X130.148 Y119.354 E0.00267
G1 X129.985 Y119.375 E0.00293
G1 X128.625 Y119.375 E0.02424
G1 X128.625 Y117.875 E0.02672
G1 X121.375 Y117.875 E0.12917
G1 X121.375 Y119.375 E0.02672
G1 X120.015 Y119.375 E0.02424
G1 X119.852 Y119.354 E0.00293
G1 X119.713 Y119.296 E0.00267
G1 X119.595 Y119.205 E0.00267
G1 X119.503 Y119.086 E0.00267
G1 X119.446 Y118.949 E0.00264
G1 X119.432 Y118.880 E0.00126
G1 X119.423 Y117.875 E0.01791
G1 X111.082 Y117.874 E0.14860
G1 X110.954 Y117.854 E0.00231
G1 X110.811 Y117.795 E0.00275
G1 X110.712 Y117.723 E0.00218
G1 X110.633 Y117.633 E0.00214
G1 X110.554 Y117.472 E0.00319
G1 X110.525 Y117.283 E0.00341
G1 X110.525 Y92.712 E0.43776
M73 Q1 S81
G1 X110.567 Y92.487 E0.00408
G1 X110.663 Y92.330 E0.00327
G1 X110.769 Y92.232 E0.00258
G1 X110.930 Y92.153 E0.00319
G1 X111.085 Y92.126 E0.00280
G1 X119.423 Y92.125 E0.14856
M73 P1 R80
G1 X119.432 Y91.126 E0.01780
G1 X119.472 Y90.973 E0.00282
G1 X119.595 Y90.795 E0.00386
G1 X119.713 Y90.704 E0.00267
G1 X119.852 Y90.646 E0.00267
G1 X120.015 Y90.625 E0.00293
G1 X121.375 Y90.625 E0.02424
G1 X121.375 Y92.065 E0.02566
M204 S1000
G1 X121.472 Y92.513 F10800.000
G1 F8640.000
G1 X124.666 Y92.092 E-0.76000
G1 E-0.04000 F2100.00000
G1 Z0.900 F10800.000
G1 X119.979 Y92.309
G1 Z0.300
G1 E0.80000 F2100.00000
G1 F3749
G1 X120.625 Y91.663 E0.01955
G1 X120.625 Y91.375 E0.00615
G1 X120.186 Y91.375 E0.00940
G1 X119.985 Y91.576 E0.00607
G1 F8640.000
G1 X120.186 Y91.375 E-0.06552
G1 X120.625 Y91.375 E-0.10149
G1 X120.625 Y91.663 E-0.06644
G1 X119.979 Y92.309 E-0.21109
G1 E-0.35546 F2100.00000
G1 Z0.900 F10800.000
G1 X129.182 Y91.584
G1 Z0.300
G1 E0.80000 F2100.00000
G1 F3749
G1 X129.391 Y91.375 E0.00631
G1 X129.821 Y91.375 E0.00919
G1 X129.823 Y91.670 E0.00631
G1 X129.182 Y92.311 E0.01938
G1 F8640.000
G1 X129.823 Y91.670 E-0.20931
G1 X129.821 Y91.375 E-0.06815
G1 X129.391 Y91.375 E-0.09920
G1 X129.182 Y91.584 E-0.06820
G1 E-0.35514 F2100.00000
G1 Z0.900 F10800.000
G1 X129.182 Y117.872
G1 Z0.300
G1 E0.80000 F2100.00000
G1 F3749
G1 X129.379 Y117.675 E0.00596
G1 X129.829 Y117.675 E0.00961
